SF_Symbols/metronome.svg

<?xml version="1.0" encoding="UTF-8"?>
<svg xmlns="http://www.w3.org/2000/svg" xmlns:xlink="http://www.w3.org/1999/xlink" width="24" height="24" viewBox="0 0 24 24" version="1.1">
<g id="surface1">
<path style=" stroke:none;fill-rule:nonzero;fill:rgb(100%,100%,100%);fill-opacity:1;" d="M 4.289062 12.269531 L 1.066406 18.585938 C 0.761719 19.195312 0.609375 19.804688 0.609375 20.414062 C 0.609375 20.976562 0.738281 21.496094 0.996094 21.972656 C 1.261719 22.457031 1.636719 22.84375 2.121094 23.132812 C 2.613281 23.421875 3.203125 23.566406 3.890625 23.566406 L 20.109375 23.566406 C 20.796875 23.566406 21.382812 23.421875 21.867188 23.132812 C 22.359375 22.84375 22.734375 22.457031 22.992188 21.972656 C 23.257812 21.496094 23.390625 20.976562 23.390625 20.414062 C 23.390625 19.804688 23.238281 19.191406 22.933594 18.574219 L 14.789062 2.613281 C 14.523438 2.082031 14.128906 1.660156 13.605469 1.347656 C 13.082031 1.027344 12.546875 0.867188 12 0.867188 C 11.453125 0.867188 10.917969 1.027344 10.394531 1.347656 C 9.871094 1.660156 9.476562 2.082031 9.210938 2.613281 L 6.386719 8.144531 L 7.769531 9.515625 L 10.816406 3.445312 C 10.949219 3.195312 11.117188 2.996094 11.320312 2.847656 C 11.53125 2.691406 11.757812 2.613281 12 2.613281 C 12.25 2.613281 12.476562 2.691406 12.679688 2.847656 C 12.882812 2.996094 13.050781 3.195312 13.183594 3.445312 L 19.582031 16.195312 L 4.417969 16.195312 L 5.695312 13.675781 Z M 3.890625 21.726562 C 3.460938 21.726562 3.125 21.585938 2.882812 21.304688 C 2.648438 21.03125 2.53125 20.710938 2.53125 20.34375 C 2.53125 20.21875 2.542969 20.09375 2.566406 19.96875 C 2.597656 19.835938 2.644531 19.707031 2.707031 19.582031 L 3.503906 18.011719 L 20.484375 17.988281 L 21.292969 19.582031 C 21.417969 19.847656 21.480469 20.097656 21.480469 20.332031 C 21.480469 20.699219 21.359375 21.023438 21.117188 21.304688 C 20.875 21.585938 20.539062 21.726562 20.109375 21.726562 Z M 12.984375 14.71875 L 12.984375 6.503906 C 12.984375 6.214844 12.898438 5.984375 12.726562 5.8125 C 12.5625 5.632812 12.335938 5.542969 12.046875 5.542969 C 11.757812 5.542969 11.53125 5.632812 11.367188 5.8125 C 11.203125 5.984375 11.121094 6.214844 11.121094 6.503906 L 11.121094 12.855469 Z M 11.402344 17.625 L 12.726562 16.289062 L 2.613281 6.1875 C 2.417969 5.992188 2.199219 5.894531 1.957031 5.894531 C 1.714844 5.894531 1.492188 5.992188 1.289062 6.1875 C 1.078125 6.390625 0.976562 6.617188 0.984375 6.867188 C 0.992188 7.109375 1.09375 7.332031 1.289062 7.535156 Z M 11.402344 17.625 "/>
</g>
</svg>

<svg xmlns="http://www.w3.org/2000/svg" width="24" height="24"><path style="stroke:none;fill-rule:nonzero;fill:#fff;fill-opacity:1" d="m4.29 12.27-3.224 6.316c-.304.61-.457 1.219-.457 1.828 0 .563.13 1.082.387 1.559.266.484.64.87 1.125 1.16.492.289 1.082.433 1.77.433h16.218c.688 0 1.274-.144 1.758-.433.492-.29.867-.676 1.125-1.16.266-.477.399-.996.399-1.559 0-.61-.153-1.223-.457-1.84l-8.145-15.96a3.032 3.032 0 0 0-1.184-1.266c-.523-.32-1.058-.48-1.605-.48-.547 0-1.082.16-1.605.48A3.032 3.032 0 0 0 9.21 2.613L6.387 8.145l1.383 1.37 3.046-6.07c.133-.25.301-.449.504-.597a1.103 1.103 0 0 1 1.36 0c.203.148.37.347.504.597l6.398 12.75H4.418l1.277-2.52Zm-.4 9.457c-.43 0-.765-.141-1.007-.422a1.445 1.445 0 0 1-.352-.961c0-.125.012-.25.035-.375.032-.133.079-.262.141-.387l.797-1.57 16.98-.024.809 1.594c.125.266.187.516.187.75 0 .367-.12.691-.363.973-.242.28-.578.422-1.008.422Zm9.094-7.008V6.504c0-.29-.086-.52-.257-.691-.165-.18-.391-.27-.68-.27-.29 0-.516.09-.68.27-.164.171-.246.402-.246.69v6.352Zm-1.582 2.906 1.325-1.336L2.613 6.187c-.195-.195-.414-.292-.656-.292-.242 0-.465.097-.668.293-.21.203-.312.43-.305.68.008.241.11.464.305.667Zm0 0"/></svg>
